report_00007_2020-12-11T15:55:29.892Z/bootup-time/comparison/line/4_vs_5.svg

<svg width="640" height="500" xmlns="http://www.w3.org/2000/svg" xmlns:xlink="http://www.w3.org/1999/xlink"><path fill="#fff" d="M0 0h640v500H0z"/><defs><path id="d" stroke-width=".222" stroke="currentColor" d="M-1-1h2v2h-2z"/><path id="b" stroke-width=".222" stroke="currentColor" d="M0-1.33l-1.33 2h2.66z"/><path id="f" stroke-width=".222" stroke="currentColor" d="M0 1.33L1.265.411.782-1.067l-1.564-.009-.483 1.487z"/><use xlink:href="#b" id="c" stroke="currentColor" transform="rotate(180)"/><use xlink:href="#d" id="e" stroke="currentColor" transform="rotate(45)"/><circle id="a" stroke-width=".222" stroke="currentColor" cx="0" cy="0" r="1"/></defs><g fill="none" color="#000" stroke="currentColor"><path stroke="#000" d="M45.6 413.7h9m560.4 0h-9"/><text transform="translate(37.3 417.6)" stroke="none" fill="#000" font-family="Arial" font-size="12" text-anchor="end"><tspan>38</tspan></text></g><g fill="none" color="#000" stroke="currentColor"><path stroke="#000" d="M45.6 371.8h9m560.4 0h-9"/><text transform="translate(37.3 375.7)" stroke="none" fill="#000" font-family="Arial" font-size="12" text-anchor="end"><tspan>39</tspan></text></g><g fill="none" color="#000" stroke="currentColor"><path stroke="#000" d="M45.6 329.8h9m560.4 0h-9"/><text transform="translate(37.3 333.7)" stroke="none" fill="#000" font-family="Arial" font-size="12" text-anchor="end"><tspan>40</tspan></text></g><g fill="none" color="#000" stroke="currentColor"><path stroke="#000" d="M45.6 287.8h9m560.4 0h-9"/><text transform="translate(37.3 291.7)" stroke="none" fill="#000" font-family="Arial" font-size="12" text-anchor="end"><tspan>41</tspan></text></g><g fill="none" color="#000" stroke="currentColor"><path stroke="#000" d="M45.6 245.8h9m560.4 0h-9"/><text transform="translate(37.3 249.7)" stroke="none" fill="#000" font-family="Arial" font-size="12" text-anchor="end"><tspan>42</tspan></text></g><g fill="none" color="#000" stroke="currentColor"><path stroke="#000" d="M45.6 203.8h9m560.4 0h-9"/><text transform="translate(37.3 207.7)" stroke="none" fill="#000" font-family="Arial" font-size="12" text-anchor="end"><tspan>43</tspan></text></g><g fill="none" color="#000" stroke="currentColor"><path stroke="#000" d="M45.6 161.8h9m560.4 0h-9"/><text transform="translate(37.3 165.7)" stroke="none" fill="#000" font-family="Arial" font-size="12" text-anchor="end"><tspan>44</tspan></text></g><g fill="none" color="#000" stroke="currentColor"><path stroke="#000" d="M45.6 119.9h9m560.4 0h-9"/><text transform="translate(37.3 123.8)" stroke="none" fill="#000" font-family="Arial" font-size="12" text-anchor="end"><tspan>45</tspan></text></g><g fill="none" color="#000" stroke="currentColor"><path stroke="#000" d="M45.6 77.9h9m560.4 0h-9"/><text transform="translate(37.3 81.8)" stroke="none" fill="#000" font-family="Arial" font-size="12" text-anchor="end"><tspan>46</tspan></text></g><g fill="none" color="#000" stroke="currentColor"><path stroke="#000" d="M45.6 35.9h9m560.4 0h-9"/><text transform="translate(37.3 39.8)" stroke="none" fill="#000" font-family="Arial" font-size="12" text-anchor="end"><tspan>47</tspan></text></g><g fill="none" color="#000" stroke="currentColor"><path stroke="#000" d="M45.6 428v-9m0-400.9v9"/><text transform="translate(45.6 449.9)" stroke="none" fill="#000" font-family="Arial" font-size="12" text-anchor="middle"><tspan>0</tspan></text></g><g fill="none" color="#000" stroke="currentColor"><path stroke="#000" d="M103.1 428v-9m0-400.9v9"/><text transform="translate(103.1 449.9)" stroke="none" fill="#000" font-family="Arial" font-size="12" text-anchor="middle"><tspan>10</tspan></text></g><g fill="none" color="#000" stroke="currentColor"><path stroke="#000" d="M160.6 428v-9m0-400.9v9"/><text transform="translate(160.6 449.9)" stroke="none" fill="#000" font-family="Arial" font-size="12" text-anchor="middle"><tspan>20</tspan></text></g><g fill="none" color="#000" stroke="currentColor"><path stroke="#000" d="M218.1 428v-9m0-400.9v9"/><text transform="translate(218.1 449.9)" stroke="none" fill="#000" font-family="Arial" font-size="12" text-anchor="middle"><tspan>30</tspan></text></g><g fill="none" color="#000" stroke="currentColor"><path stroke="#000" d="M275.7 428v-9m0-400.9v9"/><text transform="translate(275.7 449.9)" stroke="none" fill="#000" font-family="Arial" font-size="12" text-anchor="middle"><tspan>40</tspan></text></g><g fill="none" color="#000" stroke="currentColor"><path stroke="#000" d="M333.2 428v-9m0-400.9v9"/><text transform="translate(333.2 449.9)" stroke="none" fill="#000" font-family="Arial" font-size="12" text-anchor="middle"><tspan>50</tspan></text></g><g fill="none" color="#000" stroke="currentColor"><path stroke="#000" d="M390.7 428v-9m0-400.9v9"/><text transform="translate(390.7 449.9)" stroke="none" fill="#000" font-family="Arial" font-size="12" text-anchor="middle"><tspan>60</tspan></text></g><g fill="none" color="#000" stroke="currentColor"><path stroke="#000" d="M448.2 428v-9m0-400.9v9"/><text transform="translate(448.2 449.9)" stroke="none" fill="#000" font-family="Arial" font-size="12" text-anchor="middle"><tspan>70</tspan></text></g><g fill="none" color="#000" stroke="currentColor"><path stroke="#000" d="M505.7 428v-9m0-400.9v9"/><text transform="translate(505.7 449.9)" stroke="none" fill="#000" font-family="Arial" font-size="12" text-anchor="middle"><tspan>80</tspan></text></g><g fill="none" color="#000" stroke="currentColor"><path stroke="#000" d="M563.2 428v-9m0-400.9v9"/><text transform="translate(563.2 449.9)" stroke="none" fill="#000" font-family="Arial" font-size="12" text-anchor="middle"><tspan>90</tspan></text></g><path stroke="#000" d="M45.6 18.1V428H615V18.1H45.6z" fill="none" color="#000"/><text transform="translate(271.5 467.9)" stroke="none" fill="#000" font-family="Arial" font-size="12" text-anchor="end" color="#000"><tspan>pages+cached+noadtech</tspan></text><path stroke="#9400D3" d="M279.8 464H322M45.6 262.1l5.8 72 5.7-45.8 5.8-24.5 5.7 37.1 5.8 11.7 5.7 21.5 5.8 3.9 5.7-14.4 5.8-46.7 5.7 11.1 5.8-32.6 5.7 60.8 5.8-2.9 5.7 6.2 5.8-1.8 5.7 4 5.8 16.8 5.7-45.8 5.8-7.1 5.7 7.4 5.8 44.5 5.7 82.6 5.8-136.8 5.7 31 5.8-32.1 5.7 21 5.8.7 5.7 33.3 5.8-28.3 5.7-182.8 5.8 260.1 5.7-7.2 5.8-61.5 5.8-42 5.7-21.8 5.8 70.4 5.7 10.7 5.8-23.8 5.7 16.1 5.8-58.1 5.7 58.8 5.8-9.8 5.7-56.7 5.8 16.7 5.7 7.4 5.8 14.1 5.7-52.2 5.8 19.2 5.7 24.8 5.8 40.5 5.7-74.2 5.8 74.2 5.7-69.9 5.8 47.2 5.7 10.8 5.8-65.9 5.7 34.6 5.8 39.2 5.7-34.1 5.8 32.4 5.7-14.6 5.8 26 5.7-44.2 5.8 88.5 5.7-72.5 5.8 13.9 5.8-5.4 5.7-29 5.8 55.7 5.7-147.6 5.8 101.8 5.7 32.9 5.8-93.4 5.7 39.8 5.8 74.1 5.7-59.6 5.8 9.6 5.7 71.5 5.8-110.7 5.7 13.3 5.8 77.4 5.7-63.1 5.8-69.9 5.7 150.3 5.8-28 5.7-45.5 5.8-14.7 5.7 61 5.8-43 5.7-6.9 5.8 19 5.7-27.7 5.8 34.1 5.7 16.1L592 254l5.7 49.7 5.8 37.7 5.7-41.7 5.8-30.4" fill="none" color="#000"/><text transform="translate(271.5 485.9)" stroke="none" fill="#000" font-family="Arial" font-size="12" text-anchor="end" color="#000"><tspan>pages+cached+noexternal</tspan></text><path stroke="#009E73" d="M279.8 482H322M45.6 171.2l5.8-31 5.7-55.4 5.8 73.8 5.7-22.3 5.8-14.8 5.7 7.1 5.8 71.5 5.7-30.7 5.8-27.5 5.7 4.2 5.8 12.4 5.7 12.1 5.8 16.4 5.7 25.4 5.8-114.2 5.7 36.4 5.8-11.6 5.7 26.9 5.8-94.2 5.7 79.4 5.8 15.2 5.7-38.8 5.8 15.1 5.7 47.2 5.8-48.4 5.7 56.6 5.8 23.7 5.7-60.3 5.8.1 5.7-33 5.8 4 5.7-48.9 5.8 73.6 5.8-29.1 5.7-3 5.8 136.9 5.7-123.6 5.8 48.5 5.7-16.3 5.8 24.2 5.7-25.5 5.8-10.1L292.9 26l5.8 199.5 5.7-120.6 5.8 77.6 5.7-11.9 5.8 4 5.7-28 5.8-4.4 5.7 6.2 5.8-17.3 5.7-6 5.8-57.5 5.7 81 5.8 56.9 5.7-36.3 5.8-20.8 5.7-47 5.8 23.7 5.7 19.1 5.8-13.8 5.7-14.9 5.8-20.3 5.7 45.8 5.8 45.9 5.8-57.8 5.7 3.7 5.8 26 5.7-61.6 5.8 84.1 5.7-61.1 5.8 27.9 5.7 29.4 5.8-41.4 5.7 20.4 5.8-12.6 5.7 25.7 5.8-38.5 5.7 15.8 5.8-7.7 5.7 36.2 5.8-45.8 5.7 36.8 5.8-24.4 5.7 25.5 5.8-57.7 5.7 14.8 5.8 7.9 5.7 23.8 5.8-43.7 5.7-15.8 5.8 70.1 5.7-10.9 5.8 10.9 5.7-31.9 5.8 39.3 5.7-92.2 5.8 36.2" fill="none" color="#000"/><text transform="translate(521.2 467.9)" stroke="none" fill="#000" font-family="Arial" font-size="12" text-anchor="end" color="#000"><tspan>score p10=1282</tspan></text><path stroke="#56B4E9" d="M529.5 464h42.2" fill="none" color="#000"/><g><text transform="translate(521.2 485.9)" stroke="none" fill="#000" font-family="Arial" font-size="12" text-anchor="end" color="#000"><tspan>score median=3500</tspan></text><path stroke="#E69F00" d="M529.5 482h42.2" fill="none" color="#000"/></g><g fill="none" color="#000" stroke="currentColor"><path stroke="#000" d="M45.6 18.1V428H615V18.1H45.6z"/></g></svg>

<?xml version="1.0" encoding="utf-8"  standalone="no"?>
<svg 
 width="640" height="500"
 viewBox="0 0 640 500"
 xmlns="http://www.w3.org/2000/svg"
 xmlns:xlink="http://www.w3.org/1999/xlink"
>

<title>Gnuplot</title>
<desc>Produced by GNUPLOT 5.4 patchlevel 0 </desc>

<g id="gnuplot_canvas">

<rect x="0" y="0" width="640" height="500" fill="#ffffff"/>
<defs>

	<circle id='gpDot' r='0.5' stroke-width='0.5' stroke='currentColor'/>
	<path id='gpPt0' stroke-width='0.222' stroke='currentColor' d='M-1,0 h2 M0,-1 v2'/>
	<path id='gpPt1' stroke-width='0.222' stroke='currentColor' d='M-1,-1 L1,1 M1,-1 L-1,1'/>
	<path id='gpPt2' stroke-width='0.222' stroke='currentColor' d='M-1,0 L1,0 M0,-1 L0,1 M-1,-1 L1,1 M-1,1 L1,-1'/>
	<rect id='gpPt3' stroke-width='0.222' stroke='currentColor' x='-1' y='-1' width='2' height='2'/>
	<rect id='gpPt4' stroke-width='0.222' stroke='currentColor' fill='currentColor' x='-1' y='-1' width='2' height='2'/>
	<circle id='gpPt5' stroke-width='0.222' stroke='currentColor' cx='0' cy='0' r='1'/>
	<use xlink:href='#gpPt5' id='gpPt6' fill='currentColor' stroke='none'/>
	<path id='gpPt7' stroke-width='0.222' stroke='currentColor' d='M0,-1.33 L-1.33,0.67 L1.33,0.67 z'/>
	<use xlink:href='#gpPt7' id='gpPt8' fill='currentColor' stroke='none'/>
	<use xlink:href='#gpPt7' id='gpPt9' stroke='currentColor' transform='rotate(180)'/>
	<use xlink:href='#gpPt9' id='gpPt10' fill='currentColor' stroke='none'/>
	<use xlink:href='#gpPt3' id='gpPt11' stroke='currentColor' transform='rotate(45)'/>
	<use xlink:href='#gpPt11' id='gpPt12' fill='currentColor' stroke='none'/>
	<path id='gpPt13' stroke-width='0.222' stroke='currentColor' d='M0,1.330 L1.265,0.411 L0.782,-1.067 L-0.782,-1.076 L-1.265,0.411 z'/>
	<use xlink:href='#gpPt13' id='gpPt14' fill='currentColor' stroke='none'/>
	<filter id='textbox' filterUnits='objectBoundingBox' x='0' y='0' height='1' width='1'>
	  <feFlood flood-color='#FFFFFF' flood-opacity='1' result='bgnd'/>
	  <feComposite in='SourceGraphic' in2='bgnd' operator='atop'/>
	</filter>
	<filter id='greybox' filterUnits='objectBoundingBox' x='0' y='0' height='1' width='1'>
	  <feFlood flood-color='lightgrey' flood-opacity='1' result='grey'/>
	  <feComposite in='SourceGraphic' in2='grey' operator='atop'/>
	</filter>
</defs>
<g fill="none" color="#FFFFFF" stroke="black" stroke-width="1.00" stroke-linecap="butt" stroke-linejoin="miter">
</g>
<g fill="none" color="black" stroke="currentColor" stroke-width="1.00" stroke-linecap="butt" stroke-linejoin="miter">
	<path stroke='black'  d='M45.6,413.7 L54.6,413.7 M615.0,413.7 L606.0,413.7  '/>	<g transform="translate(37.3,417.6)" stroke="none" fill="black" font-family="Arial" font-size="12.00"  text-anchor="end">
		<text><tspan font-family="Arial" > 38</tspan></text>
	</g>
</g>
<g fill="none" color="black" stroke="currentColor" stroke-width="1.00" stroke-linecap="butt" stroke-linejoin="miter">
	<path stroke='black'  d='M45.6,371.8 L54.6,371.8 M615.0,371.8 L606.0,371.8  '/>	<g transform="translate(37.3,375.7)" stroke="none" fill="black" font-family="Arial" font-size="12.00"  text-anchor="end">
		<text><tspan font-family="Arial" > 39</tspan></text>
	</g>
</g>
<g fill="none" color="black" stroke="currentColor" stroke-width="1.00" stroke-linecap="butt" stroke-linejoin="miter">
	<path stroke='black'  d='M45.6,329.8 L54.6,329.8 M615.0,329.8 L606.0,329.8  '/>	<g transform="translate(37.3,333.7)" stroke="none" fill="black" font-family="Arial" font-size="12.00"  text-anchor="end">
		<text><tspan font-family="Arial" > 40</tspan></text>
	</g>
</g>
<g fill="none" color="black" stroke="currentColor" stroke-width="1.00" stroke-linecap="butt" stroke-linejoin="miter">
	<path stroke='black'  d='M45.6,287.8 L54.6,287.8 M615.0,287.8 L606.0,287.8  '/>	<g transform="translate(37.3,291.7)" stroke="none" fill="black" font-family="Arial" font-size="12.00"  text-anchor="end">
		<text><tspan font-family="Arial" > 41</tspan></text>
	</g>
</g>
<g fill="none" color="black" stroke="currentColor" stroke-width="1.00" stroke-linecap="butt" stroke-linejoin="miter">
	<path stroke='black'  d='M45.6,245.8 L54.6,245.8 M615.0,245.8 L606.0,245.8  '/>	<g transform="translate(37.3,249.7)" stroke="none" fill="black" font-family="Arial" font-size="12.00"  text-anchor="end">
		<text><tspan font-family="Arial" > 42</tspan></text>
	</g>
</g>
<g fill="none" color="black" stroke="currentColor" stroke-width="1.00" stroke-linecap="butt" stroke-linejoin="miter">
	<path stroke='black'  d='M45.6,203.8 L54.6,203.8 M615.0,203.8 L606.0,203.8  '/>	<g transform="translate(37.3,207.7)" stroke="none" fill="black" font-family="Arial" font-size="12.00"  text-anchor="end">
		<text><tspan font-family="Arial" > 43</tspan></text>
	</g>
</g>
<g fill="none" color="black" stroke="currentColor" stroke-width="1.00" stroke-linecap="butt" stroke-linejoin="miter">
	<path stroke='black'  d='M45.6,161.8 L54.6,161.8 M615.0,161.8 L606.0,161.8  '/>	<g transform="translate(37.3,165.7)" stroke="none" fill="black" font-family="Arial" font-size="12.00"  text-anchor="end">
		<text><tspan font-family="Arial" > 44</tspan></text>
	</g>
</g>
<g fill="none" color="black" stroke="currentColor" stroke-width="1.00" stroke-linecap="butt" stroke-linejoin="miter">
	<path stroke='black'  d='M45.6,119.9 L54.6,119.9 M615.0,119.9 L606.0,119.9  '/>	<g transform="translate(37.3,123.8)" stroke="none" fill="black" font-family="Arial" font-size="12.00"  text-anchor="end">
		<text><tspan font-family="Arial" > 45</tspan></text>
	</g>
</g>
<g fill="none" color="black" stroke="currentColor" stroke-width="1.00" stroke-linecap="butt" stroke-linejoin="miter">
	<path stroke='black'  d='M45.6,77.9 L54.6,77.9 M615.0,77.9 L606.0,77.9  '/>	<g transform="translate(37.3,81.8)" stroke="none" fill="black" font-family="Arial" font-size="12.00"  text-anchor="end">
		<text><tspan font-family="Arial" > 46</tspan></text>
	</g>
</g>
<g fill="none" color="black" stroke="currentColor" stroke-width="1.00" stroke-linecap="butt" stroke-linejoin="miter">
	<path stroke='black'  d='M45.6,35.9 L54.6,35.9 M615.0,35.9 L606.0,35.9  '/>	<g transform="translate(37.3,39.8)" stroke="none" fill="black" font-family="Arial" font-size="12.00"  text-anchor="end">
		<text><tspan font-family="Arial" > 47</tspan></text>
	</g>
</g>
<g fill="none" color="black" stroke="currentColor" stroke-width="1.00" stroke-linecap="butt" stroke-linejoin="miter">
	<path stroke='black'  d='M45.6,428.0 L45.6,419.0 M45.6,18.1 L45.6,27.1  '/>	<g transform="translate(45.6,449.9)" stroke="none" fill="black" font-family="Arial" font-size="12.00"  text-anchor="middle">
		<text><tspan font-family="Arial" > 0</tspan></text>
	</g>
</g>
<g fill="none" color="black" stroke="currentColor" stroke-width="1.00" stroke-linecap="butt" stroke-linejoin="miter">
	<path stroke='black'  d='M103.1,428.0 L103.1,419.0 M103.1,18.1 L103.1,27.1  '/>	<g transform="translate(103.1,449.9)" stroke="none" fill="black" font-family="Arial" font-size="12.00"  text-anchor="middle">
		<text><tspan font-family="Arial" > 10</tspan></text>
	</g>
</g>
<g fill="none" color="black" stroke="currentColor" stroke-width="1.00" stroke-linecap="butt" stroke-linejoin="miter">
	<path stroke='black'  d='M160.6,428.0 L160.6,419.0 M160.6,18.1 L160.6,27.1  '/>	<g transform="translate(160.6,449.9)" stroke="none" fill="black" font-family="Arial" font-size="12.00"  text-anchor="middle">
		<text><tspan font-family="Arial" > 20</tspan></text>
	</g>
</g>
<g fill="none" color="black" stroke="currentColor" stroke-width="1.00" stroke-linecap="butt" stroke-linejoin="miter">
	<path stroke='black'  d='M218.1,428.0 L218.1,419.0 M218.1,18.1 L218.1,27.1  '/>	<g transform="translate(218.1,449.9)" stroke="none" fill="black" font-family="Arial" font-size="12.00"  text-anchor="middle">
		<text><tspan font-family="Arial" > 30</tspan></text>
	</g>
</g>
<g fill="none" color="black" stroke="currentColor" stroke-width="1.00" stroke-linecap="butt" stroke-linejoin="miter">
	<path stroke='black'  d='M275.7,428.0 L275.7,419.0 M275.7,18.1 L275.7,27.1  '/>	<g transform="translate(275.7,449.9)" stroke="none" fill="black" font-family="Arial" font-size="12.00"  text-anchor="middle">
		<text><tspan font-family="Arial" > 40</tspan></text>
	</g>
</g>
<g fill="none" color="black" stroke="currentColor" stroke-width="1.00" stroke-linecap="butt" stroke-linejoin="miter">
	<path stroke='black'  d='M333.2,428.0 L333.2,419.0 M333.2,18.1 L333.2,27.1  '/>	<g transform="translate(333.2,449.9)" stroke="none" fill="black" font-family="Arial" font-size="12.00"  text-anchor="middle">
		<text><tspan font-family="Arial" > 50</tspan></text>
	</g>
</g>
<g fill="none" color="black" stroke="currentColor" stroke-width="1.00" stroke-linecap="butt" stroke-linejoin="miter">
	<path stroke='black'  d='M390.7,428.0 L390.7,419.0 M390.7,18.1 L390.7,27.1  '/>	<g transform="translate(390.7,449.9)" stroke="none" fill="black" font-family="Arial" font-size="12.00"  text-anchor="middle">
		<text><tspan font-family="Arial" > 60</tspan></text>
	</g>
</g>
<g fill="none" color="black" stroke="currentColor" stroke-width="1.00" stroke-linecap="butt" stroke-linejoin="miter">
	<path stroke='black'  d='M448.2,428.0 L448.2,419.0 M448.2,18.1 L448.2,27.1  '/>	<g transform="translate(448.2,449.9)" stroke="none" fill="black" font-family="Arial" font-size="12.00"  text-anchor="middle">
		<text><tspan font-family="Arial" > 70</tspan></text>
	</g>
</g>
<g fill="none" color="black" stroke="currentColor" stroke-width="1.00" stroke-linecap="butt" stroke-linejoin="miter">
	<path stroke='black'  d='M505.7,428.0 L505.7,419.0 M505.7,18.1 L505.7,27.1  '/>	<g transform="translate(505.7,449.9)" stroke="none" fill="black" font-family="Arial" font-size="12.00"  text-anchor="middle">
		<text><tspan font-family="Arial" > 80</tspan></text>
	</g>
</g>
<g fill="none" color="black" stroke="currentColor" stroke-width="1.00" stroke-linecap="butt" stroke-linejoin="miter">
	<path stroke='black'  d='M563.2,428.0 L563.2,419.0 M563.2,18.1 L563.2,27.1  '/>	<g transform="translate(563.2,449.9)" stroke="none" fill="black" font-family="Arial" font-size="12.00"  text-anchor="middle">
		<text><tspan font-family="Arial" > 90</tspan></text>
	</g>
</g>
<g fill="none" color="black" stroke="currentColor" stroke-width="1.00" stroke-linecap="butt" stroke-linejoin="miter">
</g>
<g fill="none" color="black" stroke="currentColor" stroke-width="1.00" stroke-linecap="butt" stroke-linejoin="miter">
	<path stroke='black'  d='M45.6,18.1 L45.6,428.0 L615.0,428.0 L615.0,18.1 L45.6,18.1 Z  '/></g>
<g fill="none" color="black" stroke="currentColor" stroke-width="1.00" stroke-linecap="butt" stroke-linejoin="miter">
</g>
	<g id="gnuplot_plot_1" ><title>pages+cached+noadtech</title>
<g fill="none" color="black" stroke="currentColor" stroke-width="1.00" stroke-linecap="butt" stroke-linejoin="miter">
	<g transform="translate(271.5,467.9)" stroke="none" fill="black" font-family="Arial" font-size="12.00"  text-anchor="end">
		<text><tspan font-family="Arial" >pages+cached+noadtech</tspan></text>
	</g>
</g>
<g fill="none" color="black" stroke="currentColor" stroke-width="1.00" stroke-linecap="butt" stroke-linejoin="miter">
	<path stroke='rgb(148,   0, 211)'  d='M279.8,464.0 L322.0,464.0 M45.6,262.1 L51.4,334.1 L57.1,288.3 L62.9,263.8 L68.6,300.9 L74.4,312.6
		L80.1,334.1 L85.9,338.0 L91.6,323.6 L97.4,276.9 L103.1,288.0 L108.9,255.4 L114.6,316.2 L120.4,313.3
		L126.1,319.5 L131.9,317.7 L137.6,321.7 L143.4,338.5 L149.1,292.7 L154.9,285.6 L160.6,293.0 L166.4,337.5
		L172.1,420.1 L177.9,283.3 L183.6,314.3 L189.4,282.2 L195.1,303.2 L200.9,303.9 L206.6,337.2 L212.4,308.9
		L218.1,126.1 L223.9,386.2 L229.6,379.0 L235.4,317.5 L241.2,275.5 L246.9,253.7 L252.7,324.1 L258.4,334.8
		L264.2,311.0 L269.9,327.1 L275.7,269.0 L281.4,327.8 L287.2,318.0 L292.9,261.3 L298.7,278.0 L304.4,285.4
		L310.2,299.5 L315.9,247.3 L321.7,266.5 L327.4,291.3 L333.2,331.8 L338.9,257.6 L344.7,331.8 L350.4,261.9
		L356.2,309.1 L361.9,319.9 L367.7,254.0 L373.4,288.6 L379.2,327.8 L384.9,293.7 L390.7,326.1 L396.4,311.5
		L402.2,337.5 L407.9,293.3 L413.7,381.8 L419.4,309.3 L425.2,323.2 L431.0,317.8 L436.7,288.8 L442.5,344.5
		L448.2,196.9 L454.0,298.7 L459.7,331.6 L465.5,238.2 L471.2,278.0 L477.0,352.1 L482.7,292.5 L488.5,302.1
		L494.2,373.6 L500.0,262.9 L505.7,276.2 L511.5,353.6 L517.2,290.5 L523.0,220.6 L528.7,370.9 L534.5,342.9
		L540.2,297.4 L546.0,282.7 L551.7,343.7 L557.5,300.7 L563.2,293.8 L569.0,312.8 L574.7,285.1 L580.5,319.2
		L586.2,335.3 L592.0,254.0 L597.7,303.7 L603.5,341.4 L609.2,299.7 L615.0,269.3  '/></g>
	</g>
	<g id="gnuplot_plot_2" ><title>pages+cached+noexternal</title>
<g fill="none" color="black" stroke="currentColor" stroke-width="1.00" stroke-linecap="butt" stroke-linejoin="miter">
	<g transform="translate(271.5,485.9)" stroke="none" fill="black" font-family="Arial" font-size="12.00"  text-anchor="end">
		<text><tspan font-family="Arial" >pages+cached+noexternal</tspan></text>
	</g>
</g>
<g fill="none" color="black" stroke="currentColor" stroke-width="1.00" stroke-linecap="butt" stroke-linejoin="miter">
	<path stroke='rgb(  0, 158, 115)'  d='M279.8,482.0 L322.0,482.0 M45.6,171.2 L51.4,140.2 L57.1,84.8 L62.9,158.6 L68.6,136.3 L74.4,121.5
		L80.1,128.6 L85.9,200.1 L91.6,169.4 L97.4,141.9 L103.1,146.1 L108.9,158.5 L114.6,170.6 L120.4,187.0
		L126.1,212.4 L131.9,98.2 L137.6,134.6 L143.4,123.0 L149.1,149.9 L154.9,55.7 L160.6,135.1 L166.4,150.3
		L172.1,111.5 L177.9,126.6 L183.6,173.8 L189.4,125.4 L195.1,182.0 L200.9,205.7 L206.6,145.4 L212.4,145.5
		L218.1,112.5 L223.9,116.5 L229.6,67.6 L235.4,141.2 L241.2,112.1 L246.9,109.1 L252.7,246.0 L258.4,122.4
		L264.2,170.9 L269.9,154.6 L275.7,178.8 L281.4,153.3 L287.2,143.2 L292.9,26.0 L298.7,225.5 L304.4,104.9
		L310.2,182.5 L315.9,170.6 L321.7,174.6 L327.4,146.6 L333.2,142.2 L338.9,148.4 L344.7,131.1 L350.4,125.1
		L356.2,67.6 L361.9,148.6 L367.7,205.5 L373.4,169.2 L379.2,148.4 L384.9,101.4 L390.7,125.1 L396.4,144.2
		L402.2,130.4 L407.9,115.5 L413.7,95.2 L419.4,141.0 L425.2,186.9 L431.0,129.1 L436.7,132.8 L442.5,158.8
		L448.2,97.2 L454.0,181.3 L459.7,120.2 L465.5,148.1 L471.2,177.5 L477.0,136.1 L482.7,156.5 L488.5,143.9
		L494.2,169.6 L500.0,131.1 L505.7,146.9 L511.5,139.2 L517.2,175.4 L523.0,129.6 L528.7,166.4 L534.5,142.0
		L540.2,167.5 L546.0,109.8 L551.7,124.6 L557.5,132.5 L563.2,156.3 L569.0,112.6 L574.7,96.8 L580.5,166.9
		L586.2,156.0 L592.0,166.9 L597.7,135.0 L603.5,174.3 L609.2,82.1 L615.0,118.3  '/></g>
	</g>
	<g id="gnuplot_plot_3" ><title>score p10=1282</title>
<g fill="none" color="black" stroke="currentColor" stroke-width="1.00" stroke-linecap="butt" stroke-linejoin="miter">
	<g transform="translate(521.2,467.9)" stroke="none" fill="black" font-family="Arial" font-size="12.00"  text-anchor="end">
		<text><tspan font-family="Arial" >score p10=1282</tspan></text>
	</g>
</g>
<g fill="none" color="black" stroke="currentColor" stroke-width="1.00" stroke-linecap="butt" stroke-linejoin="miter">
	<path stroke='rgb( 86, 180, 233)'  d='M529.5,464.0 L571.7,464.0  '/></g>
	</g>
	<g id="gnuplot_plot_4" ><title>score median=3500</title>
<g fill="none" color="black" stroke="currentColor" stroke-width="1.00" stroke-linecap="butt" stroke-linejoin="miter">
	<g transform="translate(521.2,485.9)" stroke="none" fill="black" font-family="Arial" font-size="12.00"  text-anchor="end">
		<text><tspan font-family="Arial" >score median=3500</tspan></text>
	</g>
</g>
<g fill="none" color="black" stroke="currentColor" stroke-width="1.00" stroke-linecap="butt" stroke-linejoin="miter">
	<path stroke='rgb(230, 159,   0)'  d='M529.5,482.0 L571.7,482.0  '/></g>
	</g>
<g fill="none" color="#FFFFFF" stroke="rgb(230, 159,   0)" stroke-width="2.00" stroke-linecap="butt" stroke-linejoin="miter">
</g>
<g fill="none" color="black" stroke="currentColor" stroke-width="2.00" stroke-linecap="butt" stroke-linejoin="miter">
</g>
<g fill="none" color="black" stroke="black" stroke-width="1.00" stroke-linecap="butt" stroke-linejoin="miter">
</g>
<g fill="none" color="black" stroke="currentColor" stroke-width="1.00" stroke-linecap="butt" stroke-linejoin="miter">
	<path stroke='black'  d='M45.6,18.1 L45.6,428.0 L615.0,428.0 L615.0,18.1 L45.6,18.1 Z  '/></g>
<g fill="none" color="black" stroke="currentColor" stroke-width="1.00" stroke-linecap="butt" stroke-linejoin="miter">
</g>
</g>
</svg>
